icons/glyphs/glyph-blender.svg

<?xml version="1.0" encoding="UTF-8" standalone="no"?><svg height="22" viewBox="0 0 5.8208332 5.8208335" width="22" xmlns="http://www.w3.org/2000/svg"><sodipodi:namedview/><metadata><rdf:RDF><cc:Work><dc:format>image/svg+xml</dc:format><dc:type/><dc:title/></cc:Work></rdf:RDF></metadata><path d="m2.7544687.00001718a.40498402.40487232 0 0 0 -.2841215.12019645.40498402.40487232 0 0 0  .0019.57314739l.9953732.99510018h-2.78616358a.40498402.40487232 0 0 0 -.29108225.1220943.40498402.40487232 0 0 0 -.11516732.2840433.40498402.40487232 0 0 0  .40435127.4042397h1.41048338l-1.96986758 1.9693243a.40498402.40487232 0 0 0 -.002531.5731472.40498402.40487232 0 0 0  .5758367 0l1.01752208-1.0178743a2.0643182 2.0637489 0 0 0  .586594 1.1931082 2.0643182 2.0637489 0 0 0 2.9196819-.0006325 2.0643182 2.0637489 0 0 0  .051888-2.862574.40498402.40487232 0 0 0 -.048725-.059466l-2.1742571-2.17365774a.40498402.40487232 0 0 0 -.2917152-.12019648zm1.0213192 2.51463662a1.242615 1.2422723 0 0 1  .8599583.3637525 1.242615 1.2422723 0 0 1  .0006327 1.7567662 1.242615 1.2422723 0 0 1 -1.7578836 0 1.242615 1.2422723 0 0 1 0-1.7567662 1.242615 1.2422723 0 0 1  .8972926-.3637525zm-.0189838.6655091a.57684958.57669047 0 0 0 -.5764694.576943.57684958.57669047 0 0 0  .5764694.5763104.57684958.57669047 0 0 0  .5771023-.5763104.57684958.57669047 0 0 0 -.5771023-.576943z" fill="#fff"/></svg>

<?xml version="1.0" encoding="UTF-8" standalone="no"?>
<!-- Created with Inkscape (http://www.inkscape.org/) -->

<svg
   xmlns:dc="http://purl.org/dc/elements/1.1/"
   xmlns:cc="http://creativecommons.org/ns#"
   xmlns:rdf="http://www.w3.org/1999/02/22-rdf-syntax-ns#"
   xmlns:svg="http://www.w3.org/2000/svg"
   xmlns="http://www.w3.org/2000/svg"
   xmlns:sodipodi="http://sodipodi.sourceforge.net/DTD/sodipodi-0.dtd"
   xmlns:inkscape="http://www.inkscape.org/namespaces/inkscape"
   width="22"
   height="22"
   viewBox="0 0 5.8208332 5.8208335"
   version="1.1"
   id="svg8"
   inkscape:version="0.92+devel 15697 custom"
   sodipodi:docname="glyph-blender.svg">
  <defs
     id="defs2" />
  <sodipodi:namedview
     id="base"
     pagecolor="#002466"
     bordercolor="#ffffff"
     borderopacity="0.29019608"
     inkscape:pageopacity="1"
     inkscape:pageshadow="2"
     inkscape:zoom="18.681818"
     inkscape:cx="11"
     inkscape:cy="11"
     inkscape:document-units="px"
     inkscape:current-layer="svg8"
     inkscape:document-rotation="0"
     showgrid="false"
     units="px"
     inkscape:showpageshadow="false"
     borderlayer="true"
     inkscape:window-width="1920"
     inkscape:window-height="1054"
     inkscape:window-x="0"
     inkscape:window-y="0"
     inkscape:window-maximized="1"
     inkscape:snap-bbox="true"
     inkscape:snap-midpoints="true"
     inkscape:snap-smooth-nodes="true"
     inkscape:snap-intersection-paths="true"
     inkscape:object-paths="true"
     inkscape:snap-object-midpoints="true"
     inkscape:snap-center="true" />
  <metadata
     id="metadata5">
    <rdf:RDF>
      <cc:Work
         rdf:about="">
        <dc:format>image/svg+xml</dc:format>
        <dc:type
           rdf:resource="http://purl.org/dc/dcmitype/StillImage" />
        <dc:title></dc:title>
      </cc:Work>
    </rdf:RDF>
  </metadata>
  <path
     style="fill:#ffffff;stroke:none;stroke-width:1.23895669;stroke-linecap:round;stroke-linejoin:round;stroke-miterlimit:4;stroke-dasharray:none"
     d="M 2.7544687,1.7179438e-5 A 0.40498402,0.40487232 0 0 0 2.4703472,0.12021363 a 0.40498402,0.40487232 0 0 0 0.0019,0.57314739 L 3.4676204,1.6884612 H 0.68145682 A 0.40498402,0.40487232 0 0 0 0.39037457,1.8105555 0.40498402,0.40487232 0 0 0 0.27520725,2.0945988 0.40498402,0.40487232 0 0 0 0.67955852,2.4988385 H 2.0900419 L 0.12017432,4.4681628 a 0.40498402,0.40487232 0 0 0 -0.002531,0.5731472 0.40498402,0.40487232 0 0 0 0.5758367,0 L 1.7110021,4.0234357 A 2.0643182,2.0637489 0 0 0 2.2975961,5.2165439 2.0643182,2.0637489 0 0 0 5.217278,5.2159114 2.0643182,2.0637489 0 0 0 5.269166,2.3533374 0.40498402,0.40487232 0 0 0 5.220441,2.2938714 L 3.0461839,0.12021366 A 0.40498402,0.40487232 0 0 0 2.7544687,1.7179438e-5 Z M 3.7757879,2.5146538 a 1.242615,1.2422723 0 0 1 0.8599583,0.3637525 1.242615,1.2422723 0 0 1 6.327e-4,1.7567662 1.242615,1.2422723 0 0 1 -1.7578836,0 1.242615,1.2422723 0 0 1 0,-1.7567662 1.242615,1.2422723 0 0 1 0.8972926,-0.3637525 z M 3.7568041,3.1801629 A 0.57684958,0.57669047 0 0 0 3.1803347,3.7571059 0.57684958,0.57669047 0 0 0 3.7568041,4.3334163 0.57684958,0.57669047 0 0 0 4.3339064,3.7571059 0.57684958,0.57669047 0 0 0 3.7568041,3.1801629 Z"
     id="path4343"
     inkscape:connector-curvature="0"
     inkscape:label="#glyph" />
</svg>
